X: 30
T: Den toppede Høne
B:[[Notböcker/Melodier til gamle danske Almuedanse for Violin solo]]
O:Danmark
Z:Søren Bak Vestergaard
M: 2/4
L: 1/8
K: G
!downbow!GB GB|GB dB|FA FA|FA cA|GB GB|GB d2|(ec) AF|G2 z2:|\
|:!downbow!ge dc|Bc df|ge df|(af) g2|ge dc|Bc df|(ec) AF|G2 z2:|

